src/img/clients/orgstroy.svg

<svg width="352" height="62" viewBox="0 0 352 62" fill="none" xmlns="http://www.w3.org/2000/svg">
<path d="M5.4001 34.8999H0.100098C4.3001 51.6999 12.4001 58.4999 29.4001 61.9999V19.8999H19.0001C25.5001 10.9999 37.0001 10.9999 45.0001 19.8999H33.4001V61.9999C51.9001 58.4999 59.4001 48.4999 62.7001 34.8999H57.9001C53.9001 45.8999 50.6001 50.8999 38.9001 55.3999V23.8999H51.7001C44.7001 3.49988 17.4001 3.89988 10.9001 23.8999H23.9001V55.3999C12.9001 50.3999 8.4001 46.3999 5.4001 34.8999V34.8999Z" fill="#CAD5DD"/>
<path d="M15.4 34.8999H17V31.8999H0C3.5 -10.6001 59.3 -10.6001 62.8 31.8999H47V40.9999C48.5 39.4999 49 37.9999 49.5 34.8999H54C51.6 42.3999 48.7 45.8999 42.5 49.9999V27.3999H56.8C56.2374 21.0782 53.3285 15.1961 48.646 10.9119C43.9635 6.62761 37.8467 4.25157 31.5 4.25157C25.1533 4.25157 19.0365 6.62761 14.354 10.9119C9.67155 15.1961 6.76262 21.0782 6.2 27.3999H20.5V37.8999H16.5L15.5 34.8999H15.4Z" fill="#CAD5DD"/>
<path d="M13 34.8999H9C10.3 42.5999 13.5 45.9999 20.4 49.8999V39.8999H17V41.8999C14.1 40.2999 13.6 38.3999 13 34.8999Z" fill="#CAD5DD"/>
<path d="M96.1998 32C96.1998 35.4 95.2998 38 93.4998 40C91.6998 42 89.1998 43 85.9998 43C82.7998 43 80.2998 42 78.4998 40C76.6998 38 75.7998 35.3 75.7998 32C75.7998 28.6 76.6998 25.9 78.4998 24C80.2998 22 82.7998 21 85.9998 21C89.1998 21 91.6998 22 93.4998 24C95.2998 25.9 96.1998 28.6 96.1998 32ZM90.7998 32C90.7998 30.7 90.5998 29.6 90.3998 28.8C90.0998 27.8 89.7998 27.1 89.3998 26.6C88.9892 26.0343 88.4376 25.5861 87.7998 25.3L85.9998 25C85.3998 25 84.7998 25 84.1998 25.3C83.6998 25.5 83.1998 25.9 82.6998 26.5C82.2998 27.1 81.8998 27.8 81.6998 28.7C81.3998 29.7 81.1998 30.7 81.1998 32C81.1998 33.3 81.3998 34.3 81.5998 35.2C81.8998 36 82.1998 36.8 82.5998 37.3C82.981 37.8432 83.4914 38.2829 84.085 38.5797C84.6785 38.8765 85.3365 39.0209 85.9998 39C86.5998 39 87.1998 38.8 87.7998 38.6C88.4011 38.2996 88.917 37.8525 89.2998 37.3C89.7479 36.6607 90.0859 35.9509 90.2998 35.2C90.5998 34.3 90.7998 33.2 90.7998 32ZM115.6 28C115.6 29 115.4 30 115.1 30.9C114.8 31.8 114.4 32.5 113.8 33.1C113.048 33.8504 112.167 34.46 111.2 34.9C109.999 35.4057 108.702 35.6445 107.4 35.6H104.7V42.5H99.3998V21.5H107.5C108.8 21.5 109.8 21.5 110.7 21.8C111.6 22 112.4 22.3 113.1 22.8C113.9 23.3 114.5 24 114.9 24.9C115.4 25.9 115.6 26.9 115.6 28.1V28ZM110.2 28.2C110.2 27.6 110 27.1 109.7 26.7C109.4 26.2 109.1 25.9 108.7 25.7L107.3 25.4H104.7V31.7H105C105.867 31.6837 106.734 31.6504 107.6 31.6L108.5 31.3C108.8 31.1 109.1 31 109.2 30.8C109.6 30.5 109.8 30.1 110 29.8L110.2 28.2V28.2ZM132.6 25.4H123.7V42.5H118.4V21.5H132.6V25.5V25.4ZM151 31.7C151 35.2 150.1 38 148.2 40C146.3 42 143.8 43 140.5 43C138.091 42.8765 135.723 42.3351 133.5 41.4V36.5H133.9C134.603 37.0732 135.338 37.6073 136.1 38.1L137.9 38.8C139.209 39.1572 140.59 39.1572 141.9 38.8C142.519 38.6129 143.097 38.3072 143.6 37.9C144.2 37.5 144.6 36.9 145 36.2C145.4 35.5 145.7 34.6 145.8 33.5H137.4V29.5H145.7C145.568 28.7559 145.296 28.0434 144.9 27.4C144.603 26.8252 144.193 26.3163 143.695 25.9039C143.197 25.4914 142.62 25.184 142 25L140.2 24.8C139.5 24.8 138.8 24.8 138.2 25.1C136.698 25.5263 135.324 26.3163 134.2 27.4H133.7V22.5C135.996 21.4786 138.487 20.9669 141 21C144 21 146.6 22 148.4 23.9C150.2 25.8 151.1 28.4 151.1 31.7H151ZM172 42.5H166.7V33.2H159.5V42.5H154.2V21.5H159.5V29H166.7V21.3H172V42.4V42.5ZM176.4 42.5V21.5H190.6V25.5H181.6V29H189.9V33H181.6V38.4H190.6V42.4H176.4V42.5ZM210.4 28.1C210.4 29.1 210.3 30 210 30.9C209.7 31.8 209.2 32.5 208.6 33.1C207.846 33.8487 206.966 34.4582 206 34.9C204.83 35.3916 203.569 35.6302 202.3 35.6H199.5V42.5H194.2V21.5H202.4C203.6 21.5 204.7 21.5 205.5 21.8C206.5 22 207.2 22.3 207.9 22.8C208.7 23.3 209.3 24 209.8 24.9C210.2 25.9 210.4 26.9 210.4 28.1V28.1ZM205 28.2C205 27.6 204.9 27.1 204.6 26.7C204.3 26.2 203.9 25.9 203.6 25.7L202.1 25.4H199.5V31.7H199.9C200.734 31.6824 201.567 31.649 202.4 31.6L203.4 31.3L204.1 30.8L204.8 29.8L205 28.2V28.2ZM227.5 25.4H218.5V42.5H213.3V21.5H227.5V25.5V25.4ZM248.9 32C248.9 35.4 247.9 38 246.1 40C244.3 42 241.8 43 238.6 43C235.5 43 233 42 231.1 40C229.3 38 228.4 35.3 228.4 32C228.4 28.6 229.4 25.9 231.1 24C233 22 235.5 21 238.6 21C241.8 21 244.3 22 246.1 24C248 25.9 248.9 28.6 248.9 32ZM243.4 32C243.4 30.7 243.3 29.6 243 28.8C242.7 27.8 242.4 27.1 242 26.6C241.589 26.0343 241.038 25.5861 240.4 25.3C239.9 25.1 239.3 25 238.7 25C238 25 237.4 25 236.9 25.3C236.4 25.5 235.9 25.9 235.4 26.5C234.9 27.1 234.6 27.8 234.3 28.7C234 29.7 233.9 30.7 233.9 32C233.9 33.3 234 34.3 234.3 35.2C234.5 36 234.9 36.8 235.3 37.3C235.681 37.8432 236.191 38.2829 236.785 38.5797C237.378 38.8765 238.037 39.0209 238.7 39C239.3 39 239.9 38.8 240.5 38.6C241.101 38.2996 241.617 37.8525 242 37.3C242.448 36.6607 242.786 35.9509 243 35.2C243.3 34.3 243.4 33.2 243.4 32V32ZM261.1 43C259.71 43.049 258.325 42.8075 257.033 42.291C255.742 41.7744 254.573 40.9941 253.6 40C251.7 38.1 250.8 35.4 250.8 32C250.8 28.6 251.8 26 253.6 24C255.4 22 257.9 21 261.1 21C262.516 20.9835 263.927 21.1516 265.3 21.5C266.348 21.812 267.355 22.2485 268.3 22.8V27.8H267.7C266.968 27.1566 266.2 26.5556 265.4 26L263.8 25.3L262 25C261.2 25 260.5 25 259.9 25.3C259.174 25.5796 258.523 26.0248 258 26.6C257.414 27.2315 256.97 27.9818 256.7 28.8C256.4 29.7 256.2 30.8 256.2 32C256.2 33.3 256.4 34.4 256.8 35.3C257.07 36.1182 257.514 36.8685 258.1 37.5C258.644 38.0029 259.293 38.3786 260 38.6C260.928 38.9288 261.923 39.0277 262.898 38.8884C263.873 38.7491 264.8 38.3756 265.6 37.8C266.404 37.3314 267.144 36.7599 267.8 36.1H268.2V41.1L266.9 41.7C265.817 42.187 264.673 42.5234 263.5 42.7C262.9 42.9 262.1 42.9 261.1 42.9V43ZM275.4 42.5V25.5H269.2V21.5H287V25.5H280.7V42.5H275.4V42.5ZM305.4 28.1C305.4 29.1 305.2 30 304.9 30.9C304.629 31.7182 304.186 32.4685 303.6 33.1C302.818 33.8604 301.902 34.4705 300.9 34.9C299.73 35.3916 298.469 35.6302 297.2 35.6H294.4V42.5H289.1V21.5H297.3C298.5 21.5 299.6 21.5 300.5 21.8C301.4 22 302.2 22.3 302.9 22.8C303.7 23.3 304.3 24 304.7 24.9C305.1 25.9 305.4 26.9 305.4 28.1V28.1ZM299.9 28.2C299.9 27.6 299.8 27.1 299.5 26.7C299.2 26.2 298.9 25.9 298.5 25.7L297 25.4H294.4V31.7H294.8C295.667 31.6837 296.534 31.6503 297.4 31.6L298.3 31.3L299 30.8C299.4 30.5 299.6 30.1 299.7 29.8C299.9 29.3 299.9 28.8 299.9 28.2V28.2ZM327.4 32C327.4 35.4 326.4 38 324.7 40C322.8 42 320.3 43 317.2 43C314 43 311.5 42 309.7 40C307.9 38 307 35.3 307 32C307 28.6 307.9 25.9 309.7 24C311.5 22 314 21 317.2 21C320.3 21 322.8 22 324.7 24C326.5 25.9 327.4 28.6 327.4 32ZM321.9 32C321.9 30.7 321.8 29.6 321.5 28.8C321.3 27.8 320.9 27.1 320.5 26.6C320.117 26.0475 319.601 25.6004 319 25.3L317.2 25C316.5 25 315.9 25 315.4 25.3C314.9 25.5 314.4 25.9 313.9 26.5C313.5 27.1 313.1 27.8 312.9 28.7C312.6 29.7 312.4 30.7 312.4 32C312.4 33.3 312.6 34.3 312.8 35.2C313.1 36 313.4 36.8 313.8 37.3C314.181 37.8432 314.691 38.2829 315.285 38.5797C315.878 38.8765 316.537 39.0209 317.2 39C317.8 39 318.4 38.8 319 38.6C319.601 38.2996 320.117 37.8525 320.5 37.3C320.948 36.6607 321.286 35.9509 321.5 35.2C321.8 34.3 321.9 33.2 321.9 32V32ZM348.7 42.5H343.5V28.6L335.5 42.5H330.5V21.5H335.8V34L343.2 21.4H348.7V42.5ZM347.1 14.5C347.124 15.2597 346.974 16.0148 346.662 16.7079C346.35 17.401 345.884 18.0139 345.3 18.5C344.1 19.5 342.3 20.1 339.7 20.1C337.2 20.1 335.3 19.6 334.1 18.5C333.497 18.024 333.012 17.4155 332.683 16.7218C332.353 16.0281 332.188 15.2679 332.2 14.5H336.8C336.8 15.5 337.1 16.2 337.5 16.7C337.9 17.2 338.6 17.4 339.7 17.4C340.7 17.4 341.4 17.2 341.9 16.7C342.3 16.2 342.5 15.5 342.5 14.5H347.1Z" fill="#CAD5DD"/>
</svg>

<svg width="352" height="62" fill="none" xmlns="http://www.w3.org/2000/svg"><path d="M5.4 34.9H.1C4.3 51.7 12.4 58.5 29.4 62V19.9H19c6.5-8.9 18-8.9 26 0H33.4V62c18.5-3.5 26-13.5 29.3-27.1h-4.8c-4 11-7.3 16-19 20.5V23.9h12.8c-7-20.4-34.3-20-40.8 0h13v31.5c-11-5-15.5-9-18.5-20.5Z" fill="url(#a)"/><path d="M15.4 34.9H17v-3H0c3.5-42.5 59.3-42.5 62.8 0H47V41c1.5-1.5 2-3 2.5-6.1H54c-2.4 7.5-5.3 11-11.5 15.1V27.4h14.3a25.4 25.4 0 0 0-50.6 0h14.3v10.5h-4l-1-3Z" fill="url(#b)"/><path d="M13 34.9H9c1.3 7.7 4.5 11.1 11.4 15v-10H17v2c-2.9-1.6-3.4-3.5-4-7Z" fill="#9F191C"/><path d="M96.2 32c0 3.4-.9 6-2.7 8-1.8 2-4.3 3-7.5 3s-5.7-1-7.5-3c-1.8-2-2.7-4.7-2.7-8 0-3.4.9-6.1 2.7-8 1.8-2 4.3-3 7.5-3s5.7 1 7.5 3c1.8 1.9 2.7 4.6 2.7 8Zm-5.4 0c0-1.3-.2-2.4-.4-3.2-.3-1-.6-1.7-1-2.2a4 4 0 0 0-1.6-1.3L86 25c-.6 0-1.2 0-1.8.3-.5.2-1 .6-1.5 1.2-.4.6-.8 1.3-1 2.2-.3 1-.5 2-.5 3.3 0 1.3.2 2.3.4 3.2.3.8.6 1.6 1 2.1A4 4 0 0 0 86 39c.6 0 1.2-.2 1.8-.4a4 4 0 0 0 1.5-1.3 7 7 0 0 0 1-2.1c.3-.9.5-2 .5-3.2Zm24.8-4c0 1-.2 2-.5 2.9-.3.9-.7 1.6-1.3 2.2a8.9 8.9 0 0 1-2.6 1.8 9 9 0 0 1-3.8.7h-2.7v6.9h-5.3v-21h8.1c1.3 0 2.3 0 3.2.3.9.2 1.7.5 2.4 1 .8.5 1.4 1.2 1.8 2.1.5 1 .7 2 .7 3.2Zm-5.4.2c0-.6-.2-1.1-.5-1.5-.3-.5-.6-.8-1-1l-1.4-.3H104.7v6.3h.3a66.2 66.2 0 0 0 2.6-.1l.9-.3c.3-.2.6-.3.7-.5.4-.3.6-.7.8-1l.2-1.6Zm22.4-2.8h-8.9v17.1h-5.3v-21h14.2v4Zm18.4 6.3c0 3.5-.9 6.3-2.8 8.3-1.9 2-4.4 3-7.7 3a20.8 20.8 0 0 1-7-1.6v-4.9h.4a24.8 24.8 0 0 0 2.2 1.6l1.8.7a7.6 7.6 0 0 0 4 0 5 5 0 0 0 1.7-.9c.6-.4 1-1 1.4-1.7.4-.7.7-1.6.8-2.7h-8.4v-4h8.3a6 6 0 0 0-.8-2.1A4.8 4.8 0 0 0 142 25l-1.8-.2c-.7 0-1.4 0-2 .3a9.5 9.5 0 0 0-4 2.3h-.5v-4.9A17.4 17.4 0 0 1 141 21c3 0 5.6 1 7.4 2.9 1.8 1.9 2.7 4.5 2.7 7.8Zm21 10.8h-5.3v-9.3h-7.2v9.3h-5.3v-21h5.3V29h7.2v-7.7h5.3v21.1Zm4.4 0v-21h14.2v4h-9V29h8.3v4h-8.3v5.4h9v4h-14.2Zm34-14.4c0 1-.1 1.9-.4 2.8-.3.9-.8 1.6-1.4 2.2a9 9 0 0 1-2.6 1.8 9 9 0 0 1-3.7.7h-2.8v6.9h-5.3v-21h8.2c1.2 0 2.3 0 3.1.3 1 .2 1.7.5 2.4 1 .8.5 1.4 1.2 1.9 2.1.4 1 .6 2 .6 3.2Zm-5.4.1c0-.6-.1-1.1-.4-1.5-.3-.5-.7-.8-1-1l-1.5-.3h-2.6v6.3h.4a66.4 66.4 0 0 0 2.5-.1l1-.3.7-.5.7-1 .2-1.6Zm22.5-2.8h-9v17.1h-5.2v-21h14.2v4Zm21.4 6.6c0 3.4-1 6-2.8 8-1.8 2-4.3 3-7.5 3-3.1 0-5.6-1-7.5-3-1.8-2-2.7-4.7-2.7-8 0-3.4 1-6.1 2.7-8 1.9-2 4.4-3 7.5-3 3.2 0 5.7 1 7.5 3 1.9 1.9 2.8 4.6 2.8 8Zm-5.5 0c0-1.3-.1-2.4-.4-3.2-.3-1-.6-1.7-1-2.2a4 4 0 0 0-1.6-1.3c-.5-.2-1.1-.3-1.7-.3-.7 0-1.3 0-1.8.3-.5.2-1 .6-1.5 1.2s-.8 1.3-1.1 2.2c-.3 1-.4 2-.4 3.3 0 1.3.1 2.3.4 3.2.2.8.6 1.6 1 2.1a4 4 0 0 0 3.4 1.7c.6 0 1.2-.2 1.8-.4a4 4 0 0 0 1.5-1.3 7 7 0 0 0 1-2.1c.3-.9.4-2 .4-3.2Zm17.7 11a10 10 0 0 1-7.5-3c-1.9-1.9-2.8-4.6-2.8-8 0-3.4 1-6 2.8-8 1.8-2 4.3-3 7.5-3a16.3 16.3 0 0 1 4.2.5 13.7 13.7 0 0 1 3 1.3v5h-.6a25.5 25.5 0 0 0-2.3-1.8l-1.6-.7-1.8-.3c-.8 0-1.5 0-2.1.3a5 5 0 0 0-1.9 1.3 6 6 0 0 0-1.3 2.2c-.3.9-.5 2-.5 3.2 0 1.3.2 2.4.6 3.3a6 6 0 0 0 1.3 2.2 5 5 0 0 0 1.9 1.1 6.1 6.1 0 0 0 5.6-.8 10.7 10.7 0 0 0 2.2-1.7h.4v5l-1.3.6a13 13 0 0 1-3.4 1c-.6.2-1.4.2-2.4.2Zm14.3-.5v-17h-6.2v-4H287v4h-6.3v17h-5.3Zm30-14.4c0 1-.2 1.9-.5 2.8a6 6 0 0 1-1.3 2.2 8.9 8.9 0 0 1-2.7 1.8 9 9 0 0 1-3.7.7h-2.8v6.9h-5.3v-21h8.2c1.2 0 2.3 0 3.2.3.9.2 1.7.5 2.4 1 .8.5 1.4 1.2 1.8 2.1.4 1 .7 2 .7 3.2Zm-5.5.1c0-.6-.1-1.1-.4-1.5-.3-.5-.6-.8-1-1l-1.5-.3h-2.6v6.3h.4a66.4 66.4 0 0 0 2.6-.1l.9-.3.7-.5c.4-.3.6-.7.7-1 .2-.5.2-1 .2-1.6Zm27.5 3.8c0 3.4-1 6-2.7 8-1.9 2-4.4 3-7.5 3-3.2 0-5.7-1-7.5-3-1.8-2-2.7-4.7-2.7-8 0-3.4.9-6.1 2.7-8 1.8-2 4.3-3 7.5-3 3.1 0 5.6 1 7.5 3 1.8 1.9 2.7 4.6 2.7 8Zm-5.5 0c0-1.3-.1-2.4-.4-3.2-.2-1-.6-1.7-1-2.2a4 4 0 0 0-1.5-1.3l-1.8-.3c-.7 0-1.3 0-1.8.3-.5.2-1 .6-1.5 1.2-.4.6-.8 1.3-1 2.2-.3 1-.5 2-.5 3.3 0 1.3.2 2.3.4 3.2.3.8.6 1.6 1 2.1a4 4 0 0 0 3.4 1.7c.6 0 1.2-.2 1.8-.4a4 4 0 0 0 1.5-1.3 7 7 0 0 0 1-2.1c.3-.9.4-2 .4-3.2Zm26.8 10.5h-5.2V28.6l-8 13.9h-5v-21h5.3V34l7.4-12.6h5.5v21.1Zm-1.6-28a5 5 0 0 1-1.8 4c-1.2 1-3 1.6-5.6 1.6-2.5 0-4.4-.5-5.6-1.6a5 5 0 0 1-1.9-4h4.6c0 1 .3 1.7.7 2.2.4.5 1.1.7 2.2.7 1 0 1.7-.2 2.2-.7.4-.5.6-1.2.6-2.2h4.6Z" fill="#000"/><defs><linearGradient id="a" x1="46.4" y1="8" x2="20.4" y2="60" gradientUnits="userSpaceOnUse"><stop stop-color="#E20731"/><stop offset="1" stop-color="#A0191E"/></linearGradient><linearGradient id="b" x1="46.4" y1="8" x2="20.4" y2="60" gradientUnits="userSpaceOnUse"><stop stop-color="#E20731"/><stop offset="1" stop-color="#A0191E"/></linearGradient></defs></svg>
